X:1
T:Title
%%score { ( 1 3 ) | ( 2 4 ) }
L:1/8
M:4/4
K:Db
V:1 treble nm="Grand Piano"
V:3 treble 
V:2 bass 
V:4 bass 
V:1
 z4 z2[Q:1/4=100] [DF]>[EG] | [FA]>[FA] [FA]>[GB] [FA]>[EG] [DF]>[FA] | [Fd]<[Fd] [Ad]>[Ac] [GB]4 | %3
 [FA]2 [FA]>[GB] [FA]2 [EG]>[DF] | [CE]6 [DF]>[EG] | [FA]>[FA] [FA]>[GB] [FA]>[EG] [DF]>[FA] | %6
 [Fd]>[Fd] [DAd]>[DAc] [DGB]4 | [DFA]2 [DFA]>[EG] [A,DF]2[K:bass] [G,CE]>[G,CE] |[M:2/4] [F,D]4 | %9
 d3 c |[M:4/4] B>B B>B G<G c>B | [FA]>[FA] [FA]>[A,EG] [A,DF]4 | %12
 [CEG]2 [CEG]>[CFA] [CGB]2 [A,FA]>[A,EG] | A,3- [A,G] A4 | B>B B>c e<d c>B | z4 [Fd]4 | %16
 B2 e>d c2 B>c |[M:3/4] [Fd]6 |] %18
V:2
 z4 z2 [D,A,]2 | [D,D]>[D,D] [D,D]>[D,D] [D,D]>[D,A,] [D,A,]>[D,A,] | %2
 [D,A,]<[D,A,] [F,D]>[F,D] [G,D]4 | [D,D]2 [D,D]>[D,D] [D,D]2 [D,A,]>[D,A,] | %4
 [A,,A,]6 [D,A,]>[D,A,] | [D,D]>[D,D] [D,D]>[D,D] [D,D]>[D,A,] [D,A,]>[D,A,] | %6
 [D,A,]>[D,A,] F,>F, G,4 | A,2 A,>A, A,,2 A,,>A,, |[M:2/4] D,4 | F,4 | %10
[M:4/4] [G,DG]>[G,DG] [G,DG]>[G,DG] [A,D]<[B,D] [G,DG]>[G,DG] | [D,D]>[D,D] [D,D]>D, D,4 | %12
 A,,2 A,,>A,, A,,2 A,,>A,, | z2 z[K:treble] E [DF]4 | %14
 [G,DG]>[G,DG] [G,DG]>[K:bass][G,CG] [G,B,G]<[G,B,G] [G,DG]>[G,DG] | %15
 [D,D]>[D,D] [D,D]>[D,D] A,2 z2 | [G,DG]2 [G,B,G]>[G,EG] [A,EG]2 [A,EG]>[A,G] | %17
[M:3/4][K:bass] [D,A,]6 |] %18
V:3
 x8 | x8 | x8 | x8 | x8 | x8 | x8 | x6[K:bass] x2 |[M:2/4] x4 | [DA]4 |[M:4/4] x8 | x8 | x8 | %13
 [DF]4 z4 | x8 | [FA]>[FA] [FA]>[FA] z2 D2 | x8 |[M:3/4] x6 |] %18
V:4
 x8 | x8 | x8 | x8 | x8 | x8 | x8 | x8 |[M:2/4] x4 | x4 |[M:4/4] x8 | x8 | x8 | D,8[K:treble] | %14
 x7/2[K:bass] x9/2 | z4 D,4 | x8 |[M:3/4][K:bass] x6 |] %18

